resources/phenylethylamine.svg

<?xml version="1.0"?>
<!DOCTYPE svg PUBLIC '-//W3C//DTD SVG 1.0//EN'
          'http://www.w3.org/TR/2001/REC-SVG-20010904/DTD/svg10.dtd'>
<svg fill-opacity="1" xmlns:xlink="http://www.w3.org/1999/xlink" color-rendering="auto" color-interpolation="auto" text-rendering="auto" stroke="black" stroke-linecap="square" width="359" stroke-miterlimit="10" shape-rendering="auto" stroke-opacity="1" fill="black" stroke-dasharray="none" font-weight="normal" stroke-width="1" height="241" xmlns="http://www.w3.org/2000/svg" font-family="'Dialog'" font-style="normal" stroke-linejoin="miter" font-size="12px" stroke-dashoffset="0" image-rendering="auto"
><!--Generated by Marvin with Batik SVG Generator
MolSource:
<?xml version="1.0" encoding="windows-1252"?><cml xmlns="http://www.chemaxon.com" xmlns:xsi="http://www.w3.org/2001/XMLSchema-instance" xsi:schemaLocation="http://www.chemaxon.com/marvin/schema/mrvSchema_16_02_15.xsd" version="ChemAxon file format v16.02.15, generated by v17.21.0">
<MDocument><MChemicalStruct><molecule molID="m1"><atomArray atomID="a1 a2 a3 a4 a5 a6 a7 a8 a9" elementType="N C C C C C C C C" x2="-5.252282703875698 -6.585961825703734 -7.95811187295382 -9.291790994781856 -9.211191848967008 -10.502733869627047 -11.874875036101928 -11.955474181916776 -10.66393216125674" y2="7.929615149780368 7.159615149780368 7.8587605193792704 7.088760519379271 5.550837201172043 4.712076681792769 5.411239480620729 6.949162798827956 7.78792331820723"></atomArray><bondArray><bond id="b1" atomRefs2="a2 a1" order="1"></bond><bond id="b2" atomRefs2="a3 a2" order="1"></bond><bond id="b3" atomRefs2="a4 a3" order="1"></bond><bond id="b4" atomRefs2="a5 a4" order="1"></bond><bond id="b5" atomRefs2="a6 a5" order="2"></bond><bond id="b6" atomRefs2="a7 a6" order="1"></bond><bond id="b7" atomRefs2="a8 a7" order="2"></bond><bond id="b8" atomRefs2="a9 a4" order="2"></bond><bond id="b9" atomRefs2="a9 a8" order="1"></bond></bondArray></molecule></MChemicalStruct><MPolyline id="o2" lineColor="#ff0033" headLength="0.5" headWidth="0.3"><MPoint x="-6.625" y="5.020833492279053"></MPoint><MPoint x="-6.625" y="6.770833492279053"></MPoint></MPolyline><MPolyline id="o3" lineColor="#ff0033" headLength="0.6" headWidth="0.4"><MPoint x="-10.5625" y="2.6875"></MPoint><MPoint x="-10.5625" y="4.375"></MPoint></MPolyline><MTextBox id="o4" color="#000000" toption="NOROT" fontScale="10.0" halign="LEFT" valign="TOP" autoSize="true"><Field name="text"><![CDATA[{D font=SansSerif,size=10}{fg=#ff0033}Phenyl]]></Field><MPoint x="-10.104166984558105" y="3.3958332538604736"></MPoint><MPoint x="-8.289166984558122" y="3.3958332538604736"></MPoint><MPoint x="-8.289166984558122" y="2.6258332538604776"></MPoint><MPoint x="-10.104166984558134" y="2.6258332538604776"></MPoint></MTextBox><MTextBox id="o5" color="#000000" toption="NOROT" fontScale="10.0" halign="LEFT" valign="TOP" autoSize="false"><Field name="text"><![CDATA[{D font=SansSerif,size=10}{fg=#ff0033}Ethylamine]]></Field><MPoint x="-6.145833492279053" y="5.9583330154418945"></MPoint><MPoint x="-3.175833492279054" y="5.9583330154418945"></MPoint><MPoint x="-3.175833492279054" y="5.1883330154418985"></MPoint><MPoint x="-6.145833492279081" y="5.1883330154418985"></MPoint></MTextBox></MDocument>
</cml>
--><defs id="genericDefs"
  /><g
  ><defs id="1420361954833-defs1"
    ><clipPath clipPathUnits="userSpaceOnUse" id="1420361954797-clipPath1"
      ><path d="M0 0 L359 0 L359 241 L0 241 L0 0 Z"
      /></clipPath
      ><clipPath clipPathUnits="userSpaceOnUse" id="1420361954232-clipPath1"
      ><path d="M214.8903 34.9082 C202.8762 34.9082 193.1368 44.6476 193.1368 56.6617 C193.1368 68.6758 202.8762 78.4152 214.8903 78.4152 C226.9044 78.4152 236.6438 68.6758 236.6438 56.6617 C236.6438 44.6476 226.9044 34.9082 214.8903 34.9082 Z"
      /></clipPath
      ><clipPath clipPathUnits="userSpaceOnUse" id="1420361954981-clipPath1"
      ><path d="M-256.2702 -16.4416 L102.7298 -16.4416 L102.7298 224.5584 L-256.2702 224.5584 L-256.2702 -16.4416 Z"
      /></clipPath
      ><clipPath clipPathUnits="userSpaceOnUse" id="1420361954509-clipPath1"
      ><path d="M-282.0671 -26.7783 L76.9329 -26.7783 L76.9329 214.2217 L-282.0671 214.2217 L-282.0671 -26.7783 Z"
      /></clipPath
      ><clipPath clipPathUnits="userSpaceOnUse" id="1420361954225-clipPath1"
      ><path d="M87.6109 192.0785 L121.9541 192.0785 L121.9541 206.7249 L87.6109 206.7249 L87.6109 192.0785 Z"
      /></clipPath
      ><clipPath clipPathUnits="userSpaceOnUse" id="1420361954449-clipPath1"
      ><path d="M230.3638 99.9545 L285.9191 99.9545 L285.9191 114.6009 L230.3638 114.6009 L230.3638 99.9545 Z"
      /></clipPath
    ></defs
    ><g fill="rgb(51,51,153)" text-rendering="geometricPrecision" stroke="rgb(51,51,153)"
    ><path d="M215.4903 57.7009 L253.1685 35.9474 C253.7425 35.616 253.9391 34.8823 253.6077 34.3082 C253.2763 33.7342 252.5425 33.5376 251.9685 33.869 L214.2903 55.6225 C213.7162 55.9539 213.5197 56.6877 213.8511 57.2617 C214.1825 57.8358 214.9162 58.0324 215.4903 57.7009 Z" stroke="none" clip-path="url(#1420361954797-clipPath1)"
      /><path fill="black" d="M215.4903 57.7009 L253.1685 35.9474 C253.7425 35.616 253.9391 34.8823 253.6077 34.3082 C253.2763 33.7342 252.5425 33.5376 251.9685 33.869 L214.2903 55.6225 C213.7162 55.9539 213.5197 56.6877 213.8511 57.2617 C214.1825 57.8358 214.9162 58.0324 215.4903 57.7009 Z" clip-path="url(#1420361954232-clipPath1)" stroke="none"
    /></g
    ><g text-rendering="geometricPrecision"
    ><path d="M164.9479 32.5616 L214.3455 57.7309 C214.9361 58.0319 215.6586 57.7971 215.9595 57.2065 C216.2605 56.6159 216.0257 55.8935 215.4351 55.5925 L166.0374 30.4232 C165.4468 30.1222 164.7244 30.3569 164.4234 30.9476 C164.1225 31.5382 164.3572 32.2606 164.9479 32.5616 Z" stroke="none" clip-path="url(#1420361954797-clipPath1)"
    /></g
    ><g text-rendering="geometricPrecision"
    ><path d="M118.0799 60.2517 L166.0926 32.5316 C166.6667 32.2001 166.8633 31.4664 166.5319 30.8924 C166.2004 30.3183 165.4667 30.1217 164.8926 30.4531 L116.8799 58.1733 C116.3059 58.5047 116.1093 59.2384 116.4407 59.8125 C116.7721 60.3866 117.5059 60.5832 118.0799 60.2517 Z" stroke="none" clip-path="url(#1420361954797-clipPath1)"
    /></g
    ><g text-rendering="geometricPrecision"
    ><path d="M121.5799 114.5152 L118.6783 59.1497 C118.6436 58.4877 118.0791 57.9795 117.4171 58.0142 C116.7552 58.0488 116.2469 58.6133 116.2816 59.2753 L119.1832 114.6408 C119.2179 115.3028 119.7824 115.8111 120.4443 115.7764 C121.1063 115.7417 121.6146 115.1772 121.5799 114.5152 Z" stroke="none" clip-path="url(#1420361954797-clipPath1)"
    /></g
    ><g text-rendering="geometricPrecision"
    ><path d="M73.6343 131.5823 C73.0783 131.9433 72.9204 132.6863 73.2814 133.2423 C73.6425 133.7982 74.3855 133.9561 74.9414 133.5951 L109.7402 110.9958 C110.2961 110.6348 110.4541 109.8918 110.093 109.3359 C109.732 108.7799 108.989 108.622 108.4331 108.983 ZM73.2322 143.7672 C72.6763 144.1282 72.5183 144.8712 72.8794 145.4272 C73.2404 145.9831 73.9834 146.141 74.5393 145.78 L121.0351 115.5844 C121.591 115.2234 121.7489 114.4804 121.3879 113.9245 C121.0269 113.3685 120.2839 113.2106 119.728 113.5716 Z" stroke="none" clip-path="url(#1420361954797-clipPath1)"
    /></g
    ><g text-rendering="geometricPrecision"
    ><path d="M23.9436 120.6728 L73.341 145.8428 C73.9316 146.1437 74.654 145.909 74.955 145.3184 C75.2559 144.7278 75.0212 144.0053 74.4306 143.7044 L25.0332 118.5344 C24.4426 118.2334 23.7202 118.4682 23.4192 119.0588 C23.1183 119.6494 23.353 120.3718 23.9436 120.6728 Z" stroke="none" clip-path="url(#1420361954797-clipPath1)"
    /></g
    ><g text-rendering="geometricPrecision"
    ><path d="M33.1365 70.6158 C33.1018 69.9538 32.5373 69.4455 31.8753 69.4802 C31.2134 69.5149 30.7051 70.0794 30.7398 70.7414 L32.9115 112.1791 C32.9461 112.8411 33.5106 113.3494 34.1726 113.3147 C34.8346 113.28 35.3428 112.7155 35.3082 112.0535 ZM22.7852 64.1752 C22.7505 63.5133 22.186 63.005 21.524 63.0397 C20.8621 63.0744 20.3538 63.6389 20.3885 64.3008 L23.2901 119.6664 C23.3248 120.3283 23.8893 120.8366 24.5512 120.8019 C25.2132 120.7672 25.7215 120.2027 25.6868 119.5408 Z" stroke="none" clip-path="url(#1420361954797-clipPath1)"
    /></g
    ><g text-rendering="geometricPrecision"
    ><path d="M68.6274 32.9733 C68.0368 32.6724 67.3143 32.9071 67.0134 33.4977 C66.7125 34.0883 66.9472 34.8108 67.5378 35.1117 L116.9351 60.2817 C117.5258 60.5826 118.2482 60.3479 118.5491 59.7573 C118.8501 59.1667 118.6154 58.4442 118.0247 58.1433 ZM70.3009 45.0494 C69.7103 44.7485 68.9879 44.9832 68.6869 45.5738 C68.386 46.1644 68.6207 46.8869 69.2113 47.1878 L106.1818 66.0258 C106.7724 66.3267 107.4948 66.092 107.7958 65.5014 C108.0967 64.9108 107.862 64.1883 107.2714 63.8874 Z" stroke="none" clip-path="url(#1420361954797-clipPath1)"
    /></g
    ><g text-rendering="geometricPrecision"
    ><path d="M67.429 33.0361 L20.9333 63.2317 C20.3773 63.5927 20.2194 64.3357 20.5805 64.8916 C20.9415 65.4475 21.6845 65.6055 22.2404 65.2444 L68.7362 35.0489 C69.2921 34.6879 69.45 33.9449 69.089 33.3889 C68.728 32.833 67.9849 32.6751 67.429 33.0361 Z" stroke="none" clip-path="url(#1420361954797-clipPath1)"
    /></g
    ><g fill="white" text-rendering="geometricPrecision" stroke="white"
    ><path d="M261.7429 19.9963 C259.2727 19.9963 257.2702 21.9987 257.2702 24.4689 L257.2702 33.4142 C257.2702 35.8844 259.2727 37.8869 261.7429 37.8869 L277.0944 37.8869 C279.5646 37.8869 281.5671 35.8844 281.5671 33.4142 L281.5671 40.7705 C281.5671 43.2515 283.5783 45.2627 286.0593 45.2627 L286.5291 45.2627 C289.01 45.2627 291.0212 43.2515 291.0212 40.7705 L291.0212 31.7861 C291.0212 29.3052 289.01 27.294 286.5291 27.294 L286.0593 27.294 C283.5783 27.294 281.5671 29.3052 281.5671 31.7861 L281.5671 24.4689 C281.5671 21.9987 279.5646 19.9963 277.0944 19.9963 Z" stroke="none" clip-path="url(#1420361954797-clipPath1)"
    /></g
    ><g fill="rgb(51,51,153)" text-rendering="geometricPrecision" font-size="19px" font-family="sans-serif" transform="translate(256.2702,16.4416)" stroke="rgb(51,51,153)"
    ><text x="0" xml:space="preserve" y="20" clip-path="url(#1420361954981-clipPath1)" stroke="none"
      >NH</text
    ></g
    ><g fill="rgb(51,51,153)" text-rendering="geometricPrecision" font-size="14px" font-family="sans-serif" transform="translate(282.0671,26.7783)" stroke="rgb(51,51,153)"
    ><text x="0" xml:space="preserve" y="15" clip-path="url(#1420361954509-clipPath1)" stroke="none"
      >2</text
    ></g
    ><g fill="rgb(255,0,51)" text-rendering="geometricPrecision" font-size="20px" font-weight="bold" font-family="sans-serif" stroke="rgb(255,0,51)"
    ><path d="M212.3599 88.658 L212.3599 133.6583 L214.6099 133.6583 L214.6099 88.658 L220.01 88.658 L213.4849 70.6579 L206.9599 88.658 Z" stroke="none" clip-path="url(#1420361954797-clipPath1)"
    /></g
    ><g fill="rgb(255,0,51)" text-rendering="geometricPrecision" font-size="20px" font-weight="bold" font-family="sans-serif" stroke="rgb(255,0,51)"
    ><path d="M70.6092 178.5085 L70.6092 217.6587 L72.8592 217.6587 L72.8592 178.5085 L80.0592 178.5085 L71.7342 156.9084 L63.4091 178.5085 Z" stroke="none" clip-path="url(#1420361954797-clipPath1)"
    /></g
    ><g fill="rgb(255,0,51)" text-rendering="geometricPrecision" font-size="10px" font-family="sans-serif" transform="matrix(1.98,-0,-0,1.98,-86.4705,-188.3174)" stroke="rgb(255,0,51)"
    ><text x="88.2343" xml:space="preserve" y="203.1586" clip-path="url(#1420361954225-clipPath1)" stroke="none"
      >Phenyl</text
    ></g
    ><g fill="rgb(255,0,51)" text-rendering="geometricPrecision" font-size="10px" font-family="sans-serif" transform="matrix(1.98,0,-0,1.98,-226.1227,-97.911)" stroke="rgb(255,0,51)"
    ><text x="230.735" xml:space="preserve" y="110.9081" clip-path="url(#1420361954449-clipPath1)" stroke="none"
      >Ethylamine</text
    ></g
  ></g
></svg
>

<svg color-interpolation="auto" stroke="#000" stroke-linecap="square" width="359" stroke-miterlimit="10" height="241" xmlns="http://www.w3.org/2000/svg" font-family="'Dialog'" font-size="12"><defs><clipPath id="a"><path d="M0 0h359v241H0V0z"/></clipPath><clipPath id="b"><path d="M214.89 34.908c-12.014 0-21.753 9.74-21.753 21.754 0 12.014 9.74 21.753 21.753 21.753 12.014 0 21.754-9.74 21.754-21.753 0-12.014-9.74-21.754-21.754-21.754z"/></clipPath><clipPath id="c"><path d="M-256.27-16.442h359v241h-359v-241z"/></clipPath><clipPath id="d"><path d="M-282.067-26.778h359v241h-359v-241z"/></clipPath><clipPath id="e"><path d="M87.61 192.078h34.344v14.647H87.611v-14.647z"/></clipPath><clipPath id="f"><path d="M230.364 99.954h55.555v14.647h-55.555V99.954z"/></clipPath></defs><g fill="#339" text-rendering="geometricPrecision" stroke="none"><path d="M215.49 57.7l37.678-21.753a1.2 1.2 0 1 0-1.2-2.078L214.29 55.623a1.2 1.2 0 1 0 1.2 2.078z" clip-path="url(#a)"/><path fill="#000" d="M215.49 57.7l37.678-21.753a1.2 1.2 0 1 0-1.2-2.078L214.29 55.623a1.2 1.2 0 1 0 1.2 2.078z" clip-path="url(#b)"/></g><path d="M164.948 32.562l49.397 25.169a1.2 1.2 0 1 0 1.09-2.139l-49.398-25.169a1.2 1.2 0 1 0-1.09 2.139z" stroke="none" clip-path="url(#a)" text-rendering="geometricPrecision"/><path d="M118.08 60.252l48.013-27.72a1.2 1.2 0 1 0-1.2-2.079l-48.013 27.72a1.2 1.2 0 1 0 1.2 2.079z" stroke="none" clip-path="url(#a)" text-rendering="geometricPrecision"/><path d="M121.58 114.515l-2.902-55.365a1.2 1.2 0 1 0-2.396.125l2.901 55.366a1.2 1.2 0 1 0 2.397-.126z" stroke="none" clip-path="url(#a)" text-rendering="geometricPrecision"/><path d="M73.634 131.582a1.2 1.2 0 1 0 1.307 2.013l34.8-22.6a1.2 1.2 0 1 0-1.308-2.012zm-.402 12.185a1.2 1.2 0 1 0 1.307 2.013l46.496-30.196a1.2 1.2 0 1 0-1.307-2.012z" stroke="none" clip-path="url(#a)" text-rendering="geometricPrecision"/><path d="M23.944 120.673l49.397 25.17a1.2 1.2 0 1 0 1.09-2.139l-49.398-25.17a1.2 1.2 0 1 0-1.09 2.139z" stroke="none" clip-path="url(#a)" text-rendering="geometricPrecision"/><path d="M33.136 70.616a1.2 1.2 0 1 0-2.396.125l2.171 41.438a1.2 1.2 0 1 0 2.397-.126zm-10.35-6.44a1.2 1.2 0 1 0-2.398.125l2.902 55.365a1.2 1.2 0 1 0 2.397-.125zM68.627 32.973a1.2 1.2 0 1 0-1.09 2.139l49.398 25.17a1.2 1.2 0 1 0 1.09-2.139zm1.674 12.076a1.2 1.2 0 1 0-1.09 2.139l36.97 18.838a1.2 1.2 0 1 0 1.09-2.139z" stroke="none" clip-path="url(#a)" text-rendering="geometricPrecision"/><path d="M67.429 33.036L20.933 63.232a1.2 1.2 0 1 0 1.307 2.012L68.736 35.05a1.2 1.2 0 1 0-1.307-2.013z" stroke="none" clip-path="url(#a)" text-rendering="geometricPrecision"/><path d="M261.743 19.996a4.473 4.473 0 0 0-4.473 4.473v8.945a4.473 4.473 0 0 0 4.473 4.473h15.351a4.473 4.473 0 0 0 4.473-4.473v7.356a4.492 4.492 0 0 0 4.492 4.493h.47a4.492 4.492 0 0 0 4.492-4.492v-8.985a4.492 4.492 0 0 0-4.492-4.492h-.47a4.492 4.492 0 0 0-4.492 4.492V24.47a4.473 4.473 0 0 0-4.473-4.473z" stroke="none" clip-path="url(#a)" fill="#fff" text-rendering="geometricPrecision"/><text y="20" clip-path="url(#c)" stroke="none" transform="translate(256.27 16.442)" fill="#339" text-rendering="geometricPrecision" font-size="19" font-family="sans-serif">NH</text><text y="15" clip-path="url(#d)" stroke="none" transform="translate(282.067 26.778)" fill="#339" text-rendering="geometricPrecision" font-size="14" font-family="sans-serif">2</text><path d="M212.36 88.658v45h2.25v-45h5.4l-6.525-18-6.525 18zM70.61 178.508v39.15h2.25v-39.15h7.2l-8.326-21.6-8.325 21.6z" stroke="none" clip-path="url(#a)" fill="#F03" text-rendering="geometricPrecision" font-size="20" font-weight="bold" font-family="sans-serif"/><text x="88.234" y="203.159" clip-path="url(#e)" stroke="none" transform="matrix(1.98 0 0 1.98 -86.47 -188.317)" fill="#F03" text-rendering="geometricPrecision" font-size="10" font-family="sans-serif">Phenyl</text><text x="230.735" y="110.908" clip-path="url(#f)" stroke="none" transform="matrix(1.98 0 0 1.98 -226.123 -97.911)" fill="#F03" text-rendering="geometricPrecision" font-size="10" font-family="sans-serif">Ethylamine</text></svg>
